X: 119001
T: MAJOR MOLE
Q: "Highland Schottische."
R: Schottische.
%R: shottish
B: James Kerr "Merry Melodies" v.1 p.19 s.0 #1
Z: 2017 John Chambers <jc:trillian.mit.edu>
M: C
L: 1/8
K: Am
|:\
(vA<e) ue>ud vc>vduB>uc | (A<e) e>d Tc2 (B<c) |\
(A<e) e>^f g>fg>e | d>BG>B e>dc>B ::\
(A<E) E2 A>Ec>E | (A<E) E>E c2 (B<c) |\
(A<E) E>E e>^fg>e | d>BG>B e>dc>B :|

%%sep 1 1 500
%%sep 1 1 500

